COLOR/action 16/16/object-stroke.svg

<svg viewBox="0 0 16 16" xmlns="http://www.w3.org/2000/svg"><path d="m1 1v14h14v-14zm2 2h10v10h-10z" fill="#c43ac4"/><path d="m1 1v.5h14v-.5zm2 12v.5h10v-.5z" fill="#fff" opacity=".3"/><path d="m15 15v-.5h-14v.5zm-2-12v-.5h-10v.5z" opacity=".2"/></svg>

<?xml version="1.0" encoding="UTF-8" standalone="no"?>
<svg
   xmlns:dc="http://purl.org/dc/elements/1.1/"
   xmlns:cc="http://creativecommons.org/ns#"
   xmlns:rdf="http://www.w3.org/1999/02/22-rdf-syntax-ns#"
   xmlns:svg="http://www.w3.org/2000/svg"
   xmlns="http://www.w3.org/2000/svg"
   xmlns:sodipodi="http://sodipodi.sourceforge.net/DTD/sodipodi-0.dtd"
   xmlns:inkscape="http://www.inkscape.org/namespaces/inkscape"
   viewBox="0 0 16 16"
   version="1.1"
   id="svg4"
   sodipodi:docname="object-stroke.svg"
   inkscape:version="0.92.4 (5da689c313, 2019-01-14)">
  <metadata
     id="metadata10">
    <rdf:RDF>
      <cc:Work
         rdf:about="">
        <dc:format>image/svg+xml</dc:format>
        <dc:type
           rdf:resource="http://purl.org/dc/dcmitype/StillImage" />
      </cc:Work>
    </rdf:RDF>
  </metadata>
  <defs
     id="defs8" />
  <sodipodi:namedview
     pagecolor="#ffffff"
     bordercolor="#808080"
     borderopacity="1"
     objecttolerance="10"
     gridtolerance="10"
     guidetolerance="10"
     inkscape:pageopacity="0"
     inkscape:pageshadow="2"
     inkscape:window-width="1920"
     inkscape:window-height="1016"
     id="namedview6"
     showgrid="false"
     inkscape:zoom="14.75"
     inkscape:cx="8.0677966"
     inkscape:cy="8"
     inkscape:window-x="0"
     inkscape:window-y="27"
     inkscape:window-maximized="1"
     inkscape:current-layer="svg4" />
  <path
     d="m1 1v14h14v-14zm2 2h10v10h-10z"
     fill="#c43ac4"
     id="path2" />
  <path
     d="M 1 1 L 1 1.5 L 15 1.5 L 15 1 L 1 1 z M 3 13 L 3 13.5 L 13 13.5 L 13 13 L 3 13 z "
     id="path817"
     style="fill:#ffffff;fill-opacity:1;opacity:0.3" />
  <path
     style="opacity:0.2;fill:#000000;fill-opacity:1"
     id="path822"
     d="M 15,15 V 14.5 H 1 V 15 Z M 13,3 V 2.5 H 3 V 3 Z"
     inkscape:connector-curvature="0" />
</svg>
